X:1
T: Erbarme dich (recorder transcription of solo violin)
C:Johann Sebastian Bach
O:From "The Passion According to Saint Matthew"
%%MIDI gchord off
M:12/8
L:1/8
Q:1/8=100
K:B minor
%p128
F "segno"| d>cB {c}B>^AB B3-B2 B | g3/2f//g//a- a>gf {f}e3- e>(ge) |
{d}=c>ge {c}B>ge {B}^A3/2e//f//g- g>fe | "tr"d3/2c//d//e- e>dc {B}^A3- A>f^a/c'/ |
e'//d'//c'/b^a/b/ c'//b//a/=gf/g/ g//f//e/=a3/2g//f// g//f//e/c'3/2f//e// | f//e//^d/=cB/a//g// a//g//f/ed/=c'//b// c'//b//a/gf/f//e// f//e//^d/=cB/f/| 
%p 129
g//a//ba//g//a//g//f/ e//f//gf//e//f//e//d/ =c//d//ed//c//d//c//B/ ^A//B//^c B//A//B//A//^G/ | F3/2^G//^A//B//c//d//c// e.d."tr"c"fine"HB3 cde |
d6-d3 ^d2B | g3/2f//g//a- a>gf {f}e3- e>ge |
{d}=c>ge {c}B>ge {B}^A3/2e//f//g- g>fe | {e}d3/2c//d//e- e>dc {B}^ABc F2 A |
{^A}=c>BA ^d>ef f>eB {A}G^AB | {B}d>cB ^e>f^g g>fc {B}Acc |
{f}a>^gf {g}f>^ef f6- | f2 B B^Ae- ed/f/c- cB/d/A |
%p130
{A}=G>dB {g}f>dB {F}^E3/2B//c//d- d>cB | {B}A3/2^G//A//B- B>AG {F}^E3- E/F/G/c/^e/^g/ |
b//a//^g/f^e3/4f// g//f//e/=dc3/4d// {f}e3 - e2 z | =e//=d//c/B^A3/4B// c//B//A/GF3/4G// {B}A3 - A2 z |
d'//e'//d'e'//d'//e'//d'//c'/ b//c'//d'c'//b//c'//b//a/ g//a//ba//g//a//g//f/ ^e//f//^gf//e//f//e//^d/ | c z z z2 z z2 z z2 c |
{f^g}a>^gf {g}f>^ef f3- f2 f | d'c'//d'//e'- e'>d'c' {c'}b3- b>d'b |
{a}g>d'b {g}f>d'b {f}^e3/2^g//a//b {c}d>cB | c3/2^d//^e//f//^g//a//g// ba"tr"g f3- f2 z |
%p131
z3/2 =c'/a {f}e>c'a ^d3/2f//g//a- a>gf | z3/2g/e {d}=c>ge ^AAB ^c/d/eA |
B>d'b {^a}g>d'b B>=A^G {G}B>AG | a//b//c'b//a//b//a//^g/ f//g//ag//f//g//f//e/ =d//e//fe//^d//e//d//c/ ^B z z |
z2 z z z/ a/f {e}=d>af {d}c>af | {c}^B2 z z2 z ^E^G=B- BAG |
{f}a3/2^g//a//b b>ag {g}f6 | f6 f>bg {=c}B>af |
{A}G>ge {=c'}b>ge {B}^A3/2e//f//g- g>fe | {e}d3/2c//d//e- e>dc {B}^ABc F2  ^A |
%p132
{=A}=c>BA ^d>ef f>eB {A}G2G | g>fg ^a>bc' c'z//b/f {e}d2 f |
{B}d>cB {c}B>^AB B3 ^d3 | eBe e^da  - ag/a/f- fe/g/=d |
{d}=c>ge {c}B>ge {B}^A3/2e//f//g- g>fe | {e}d3/2c//d//e- e>dc {B}^A3- A/c/f/^a/c'/d'/ |
e'//d'//c'/b^a3/4b// c'//b//a/=gf3/4g//{b}a3- a2 z | =a///g//f/e ^d3/4e//f//e//d/=cB3/4c//{e}d3- d2 z |
g//a//ba//g//a//g//f/ e//f//gf//e//f//e//d/ =c//d//ed//c//d//c//B/ ^A//B//^cB//A//B//A//^G/ | F z z z2 z z2 z z2 "Dal Segno"F |]
